svg/Filled/headphone_filled.svg

<svg viewBox="0 0 24 24" xmlns="http://www.w3.org/2000/svg" width="24" height="24"><g clip-path="url(#a)"><path d="M21.24 18.54a.9.9 0 1 1-1.68-.65zM21.2 12c0-5.06-4.5-9.2-9.2-9.2S2.8 6.94 2.8 12c0 .7.23 1.74.57 2.88.34 1.1.75 2.22 1.06 3a.9.9 0 0 1-1.67.67l-.26-.67c-.27-.72-.58-1.6-.85-2.48A13 13 0 0 1 1 12C1 5.9 6.34 1 12 1s11 4.9 11 11c0 .99-.31 2.28-.67 3.44-.36 1.19-.8 2.34-1.09 3.1l-1.68-.65c.3-.74.7-1.85 1.05-2.98.35-1.15.6-2.21.6-2.91"/><path d="m19.17 12.69.67.39c1.46.85 1.54 3.51.16 5.93s-3.69 3.68-5.15 2.82l-.67-.38a.8.8 0 0 1-.28-1.07l4.22-7.4a.76.76 0 0 1 1.05-.3m-14.34.01-.67.39C2.7 13.94 2.62 16.59 4 19s3.69 3.68 5.15 2.82l.67-.38a.8.8 0 0 0 .28-1.07l-4.22-7.4a.76.76 0 0 0-1.05-.3"/><path d="M5.16 11.68q.17 0 .33.03l.16.03.16.05.3.15.13.1.12.1q.18.16.3.39l4.22 7.4v.01l.08.15a1.7 1.7 0 0 1-.54 2.04l-.15.1-.66.38c-1.11.65-2.41.43-3.5-.17a8 8 0 0 1-2.9-2.98 8 8 0 0 1-1.1-4.03c.04-1.24.5-2.48 1.6-3.13l.67-.4.14-.07q.23-.1.48-.13zM19 11.7l.17.03.3.1.15.08.67.39.2.13c.96.67 1.36 1.84 1.4 3a8 8 0 0 1-1.1 4.03 8 8 0 0 1-2.9 2.98c-1.02.56-2.23.8-3.29.28l-.2-.1-.67-.4h-.01a1.7 1.7 0 0 1-.6-2.28l4.22-7.41q.16-.3.42-.5l.14-.1q.22-.13.45-.19l.16-.03.33-.03zM4.62 13.85c-.36.22-.68.73-.7 1.63-.03.89.24 2 .86 3.09a6 6 0 0 0 2.2 2.3c.77.42 1.36.4 1.72.19l.56-.33-4.1-7.2zm10.12 6.88.56.33.15.07c.36.14.9.1 1.57-.27a6 6 0 0 0 2.2-2.3c.62-1.08.89-2.2.87-3.08-.03-.9-.34-1.41-.7-1.63l-.55-.32z"/></g><defs><clipPath id="a"><path d="M0 0h24v24H0z"/></clipPath></defs></svg>

<svg viewBox="0 0 24 24" xmlns="http://www.w3.org/2000/svg" width="24" height="24"><g clip-path="url(#a)"><path d="M21.24 18.54A.9 .9 0 1 1 19.465 17.774ZM21.2 12C21.2 6.94 16.7 2.8 12 2.8C7.3 2.8 2.8 6.94 2.8 12C2.8 12.7 3.03 13.74 3.37 14.88C3.71 15.98 4.12 17.1 4.43 17.88A.9 .9 0 0 1 2.76 18.55L2.5 17.88C2.23 17.16 1.92 16.28 1.65 15.4A13 13 0 0 1 1 12C1 5.9 6.34 1 12 1C17.66 1 23 5.9 23 12C23 12.99 22.69 14.28 22.33 15.44C21.97 16.63 21.53 17.78 21.24 18.54L19.56 17.89C19.86 17.15 20.26 16.04 20.61 14.91C20.96 13.76 21.21 12.7 21.21 12"/><path d="m19.17 12.69.67.39c1.46.85 1.54 3.51.16 5.93s-3.69 3.68-5.15 2.82l-.67-.38a.8.8 0 0 1-.28-1.07l4.22-7.4a.76.76 0 0 1 1.05-.3m-14.34.01-.67.39C2.7 13.94 2.62 16.59 4 19s3.69 3.68 5.15 2.82l.67-.38a.8.8 0 0 0 .28-1.07l-4.22-7.4a.76.76 0 0 0-1.05-.3"/><path d="M5.16 11.68Q5.33 11.68 5.49 11.71L5.81 11.79L6.11 11.94L6.36 12.14Q6.54 12.3 6.66 12.53L10.96 20.09A1.7 1.7 0 0 1 10.42 22.13L9.61 22.61C8.5 23.26 7.2 23.04 6.11 22.44A8 8 0 0 1 3.21 19.46A8 8 0 0 1 2.11 15.43C2.15 14.19 2.61 12.95 3.71 12.3L4.52 11.83Q4.75 11.73 5 11.7ZM19 11.7L19.47 11.83L20.49 12.43C21.45 13.1 21.85 14.27 21.89 15.43A8 8 0 0 1 20.79 19.46A8 8 0 0 1 17.89 22.44C16.87 23 15.66 23.24 14.6 22.72L13.72 22.22A1.7 1.7 0 0 1 13.12 19.94L17.34 12.53Q17.5 12.23 17.76 12.03L17.9 11.93Q18.12 11.8 18.35 11.74L18.84 11.68ZM4.62 13.85c-.36.22-.68.73-.7 1.63-.03.89.24 2 .86 3.09a6 6 0 0 0 2.2 2.3c.77.42 1.36.4 1.72.19l.56-.33-4.1-7.2zM14.74 20.73L15.45 21.13C15.81 21.27 16.35 21.23 17.02 20.86A6 6 0 0 0 19.22 18.56C19.84 17.48 20.11 16.36 20.09 15.48C20.06 14.58 19.75 14.07 19.39 13.85L18.84 13.53Z"/></g><defs><clipPath id="a"><path d="M0 0h24v24H0z"/></clipPath></defs></svg>
